Newaita-dark/.DP/16/youtube-indicator-downloading-light.svg

<svg xmlns="http://www.w3.org/2000/svg" xmlns:xlink="http://www.w3.org/1999/xlink" width="16px" height="16px" viewBox="0 0 16 16" version="1.1">
<g id="surface1">
<path style=" stroke:none;fill-rule:nonzero;fill:rgb(93.333334%,93.333334%,93.333334%);fill-opacity:1;" d="M 7.917969 2.910156 C 7.917969 2.910156 3.585938 2.910156 2.503906 3.195312 C 1.921875 3.351562 1.445312 3.832031 1.285156 4.425781 C 1 5.507812 1 7.753906 1 7.753906 C 1 7.753906 1 10.011719 1.285156 11.082031 C 1.445312 11.675781 1.910156 12.140625 2.503906 12.300781 C 3.054688 12.449219 4.417969 12.523438 5.640625 12.5625 L 4.878906 11.691406 C 4.617188 11.390625 4.574219 10.957031 4.722656 10.632812 C 4.871094 10.308594 5.222656 10.050781 5.621094 10.050781 L 6.621094 10.050781 L 6.621094 5.417969 L 6.621094 5.425781 C 6.609375 4.707031 7.199219 4.101562 7.917969 4.089844 C 8.652344 4.082031 9.265625 4.691406 9.253906 5.425781 L 9.253906 5.417969 L 9.253906 10.050781 L 10.253906 10.050781 C 10.652344 10.050781 11.007812 10.308594 11.152344 10.632812 C 11.300781 10.957031 11.261719 11.390625 10.996094 11.691406 L 10.234375 12.5625 C 11.449219 12.527344 12.792969 12.453125 13.332031 12.3125 C 13.925781 12.152344 14.394531 11.6875 14.554688 11.09375 C 14.839844 10.011719 14.839844 7.765625 14.839844 7.765625 C 14.839844 7.765625 14.851562 5.507812 14.554688 4.425781 C 14.394531 3.832031 13.925781 3.363281 13.332031 3.207031 C 12.25 2.910156 7.917969 2.910156 7.917969 2.910156 Z M 7.9375 5.40625 C 7.9375 5.410156 7.9375 5.414062 7.9375 5.417969 C 7.9375 5.414062 7.9375 5.410156 7.9375 5.40625 Z M 7.9375 10.710938 C 7.9375 11.074219 7.644531 11.367188 7.28125 11.367188 L 6.347656 11.367188 L 7.417969 12.59375 C 7.726562 12.597656 7.917969 12.597656 7.917969 12.597656 C 7.917969 12.597656 8.128906 12.597656 8.457031 12.59375 L 9.53125 11.367188 L 8.597656 11.367188 C 8.234375 11.367188 7.9375 11.074219 7.9375 10.710938 Z M 7.9375 10.710938 "/>
<path style=" stroke:none;fill-rule:nonzero;fill:rgb(93.333334%,93.333334%,93.333334%);fill-opacity:1;" d="M 7.929688 4.75 C 7.566406 4.753906 7.273438 5.054688 7.28125 5.417969 L 7.28125 10.710938 L 5.621094 10.710938 C 5.339844 10.710938 5.1875 11.042969 5.375 11.257812 L 7.691406 13.902344 C 7.820312 14.054688 8.054688 14.054688 8.1875 13.902344 L 10.503906 11.257812 C 10.6875 11.042969 10.539062 10.710938 10.253906 10.710938 L 8.597656 10.710938 L 8.597656 5.417969 C 8.597656 5.238281 8.53125 5.066406 8.402344 4.941406 C 8.277344 4.816406 8.105469 4.746094 7.929688 4.75 Z M 7.929688 4.75 "/>
</g>
</svg>

<svg xmlns="http://www.w3.org/2000/svg" width="16" height="16"><g fill="#bdbdbd"><path d="M7.918 2.91s-4.332 0-5.414.285a1.76 1.76 0 0 0-1.219 1.23C1 5.509 1 7.755 1 7.755s0 2.258.285 3.328a1.73 1.73 0 0 0 1.219 1.219c.55.148 1.914.222 3.137.261l-.762-.87a1.009 1.009 0 0 1-.156-1.06c.148-.323.5-.581.898-.581h1V5.418v.008A1.327 1.327 0 0 1 7.918 4.09a1.328 1.328 0 0 1 1.336 1.336v-.008 4.633h1c.398 0 .754.258.898.582.149.324.11.758-.156 1.058l-.762.871c1.215-.035 2.559-.109 3.098-.25a1.735 1.735 0 0 0 1.223-1.218c.285-1.082.285-3.328.285-3.328s.012-2.258-.285-3.34a1.728 1.728 0 0 0-1.223-1.219C12.25 2.91 7.918 2.91 7.918 2.91zm.02 2.496v0zm0 5.305a.655.655 0 0 1-.657.656h-.933l1.07 1.227c.309.004.5.004.5.004s.21 0 .539-.004l1.074-1.227h-.933a.659.659 0 0 1-.66-.656zm0 0"/><path d="M7.93 4.75a.656.656 0 0 0-.649.668v5.293h-1.66a.33.33 0 0 0-.246.547l2.316 2.644a.326.326 0 0 0 .497 0l2.316-2.644a.33.33 0 0 0-.25-.547H8.598V5.418a.658.658 0 0 0-.668-.668zm0 0"/></g></svg>
